.local/share/icons/Gruvbox-Plus-Dark/panel/16/popcorntime-tray.svg

<svg width="16" height="16" version="1.1" xmlns="http://www.w3.org/2000/svg">
  <defs>
    <style id="current-color-scheme" type="text/css">.ColorScheme-Text { color:#ebdbb2; } .ColorScheme-Highlight { color:#458588; } .ColorScheme-NeutralText { color:#fe8019; } .ColorScheme-PositiveText { color:#689d6a; } .ColorScheme-NegativeText { color:#fb4934; }</style>
  </defs>
  <path class="ColorScheme-Text" d="m1.75 1c-0.4155 0-0.75 0.3345-0.75 0.75v6.25h14v-6.25c0-0.4155-0.3352-0.75-0.75-0.75h-12.5zm2.25 2a1 1 0 0 1 1 1 1 1 0 0 1-1 1 1 1 0 0 1-1-1 1 1 0 0 1 1-1zm8 0a1 1 0 0 1 1 1 1 1 0 0 1-1 1 1 1 0 0 1-1-1 1 1 0 0 1 1-1zm-6 2c2.054 0.3173 4 0 4 0 0 1.105-0.8954 2-2 2s-2-0.8954-2-2z" fill="currentColor" opacity=".3"/>
  <path class="ColorScheme-Text" d="m1 8v6.25c0 0.4156 0.3345 0.75 0.75 0.75h12.5c0.4156 0 0.75-0.3344 0.75-0.75v-6.25h-14zm3 1c0.554 0 1 0.446 1 1v3c0 0.554-0.446 1-1 1s-1-0.446-1-1v-3c0-0.554 0.446-1 1-1zm4 0c0.554 0 1 0.446 1 1v3c0 0.554-0.446 1-1 1s-1-0.446-1-1v-3c0-0.554 0.446-1 1-1zm4 0c0.554 0 1 0.446 1 1v3c0 0.554-0.446 1-1 1s-1-0.446-1-1v-3c0-0.554 0.446-1 1-1z" fill="currentColor"/>
</svg>

<svg xmlns="http://www.w3.org/2000/svg" width="16" height="16" version="1.1">
 <defs>
  <style id="current-color-scheme" type="text/css">
   .ColorScheme-Text { color:#ebdbb2; } .ColorScheme-Highlight { color:#458588; }
  </style>
 </defs>
 <path style="opacity:0.3;fill:currentColor" class="ColorScheme-Text" d="M 1.75 1 C 1.3344975 1 1 1.3344975 1 1.75 L 1 8 L 15 8 L 15 1.75 C 15 1.334515 14.66475 1 14.25 1 L 1.75 1 z M 4 3 A 1 1 0 0 1 5 4 A 1 1 0 0 1 4 5 A 1 1 0 0 1 3 4 A 1 1 0 0 1 4 3 z M 12 3 A 1 1 0 0 1 13 4 A 1 1 0 0 1 12 5 A 1 1 0 0 1 11 4 A 1 1 0 0 1 12 3 z M 6 5 C 8.0537 5.3173301 10 5 10 5 C 10 6.1046 9.1046 7 8 7 C 6.8954 7 6 6.1046 6 5 z"/>
 <path style="fill:currentColor" class="ColorScheme-Text" d="M 1 8 L 1 14.25 C 1 14.665625 1.3345063 15 1.75 15 L 14.25 15 C 14.665625 15 15 14.665625 15 14.25 L 15 8 L 1 8 z M 4 9 C 4.554 9 5 9.446 5 10 L 5 13 C 5 13.554 4.554 14 4 14 C 3.446 14 3 13.554 3 13 L 3 10 C 3 9.446 3.446 9 4 9 z M 8 9 C 8.554 9 9 9.446 9 10 L 9 13 C 9 13.554 8.554 14 8 14 C 7.446 14 7 13.554 7 13 L 7 10 C 7 9.446 7.446 9 8 9 z M 12 9 C 12.554 9 13 9.446 13 10 L 13 13 C 13 13.554 12.554 14 12 14 C 11.446 14 11 13.554 11 13 L 11 10 C 11 9.446 11.446 9 12 9 z"/>
</svg>
